X:13
T:Miltimber Jig
R: jig
M: 6/8
L: 1/8
K:D
|: AFD A,DF | Adf a2a | gfe dcB | ABA GFE |
   AFD A,DF | Adf a2a | gfe cAa |1 fdd d3 :|2 fdd d2e
|: f2f fga | g2g gef | gfe dcB | AaA a2g |
   f2f fga | g2g gef | gfe cAa |1 fdd d2e :|2 fdd d3 ||

